dist/img/stack/stack-20.svg

<svg width="110" height="110" viewBox="0 0 110 110" fill="none" xmlns="http://www.w3.org/2000/svg">
<g clip-path="url(#clip0_7007_333)">
<path d="M16.2467 41.6279H29.828C33.8146 41.6616 36.7031 42.8046 38.4938 45.057C40.2842 47.3096 40.8755 50.3857 40.2674 54.2854C40.0309 56.0672 39.5072 57.8154 38.6964 59.53C37.9193 61.2445 36.8382 62.791 35.4532 64.1694C33.7639 65.9176 31.9565 67.0269 30.0307 67.4977C28.105 67.9683 26.1117 68.2037 24.0509 68.2037H17.9698L16.044 77.7851H9L16.2467 41.6279ZM22.1759 47.3768L19.1353 62.5052C19.338 62.5389 19.5407 62.5557 19.7434 62.5557H20.4529C23.6962 62.5893 26.3988 62.2699 28.5611 61.5975C30.7233 60.8916 32.176 58.4374 32.9193 54.235C33.5274 50.705 32.9193 48.6711 31.0949 48.1331C29.3044 47.5953 27.0577 47.3431 24.355 47.3768C23.9495 47.4103 23.561 47.4272 23.1895 47.4272C22.8516 47.4272 22.4969 47.4272 22.1252 47.4272L22.1759 47.3768Z" fill="#B7B7BE"/>
<path d="M48.2936 32H55.287L53.3106 41.6318H59.5945C63.0406 41.6991 65.6081 42.4051 67.2974 43.7498C69.0204 45.0947 69.5271 47.6497 68.8177 51.415L65.4223 68.2076H58.3276L61.5709 52.1714C61.9087 50.4905 61.8074 49.297 61.2669 48.591C60.7263 47.8849 59.5607 47.5319 57.7701 47.5319L52.1451 47.4815L47.9896 68.2076H40.9962L48.2936 32Z" fill="#B7B7BE"/>
<path d="M76.3277 41.6279H89.909C93.8954 41.6616 96.784 42.8046 98.5746 45.057C100.365 47.3096 100.956 50.3857 100.348 54.2854C100.112 56.0672 99.5881 57.8154 98.7774 59.53C98.0003 61.2445 96.9192 62.791 95.534 64.1694C93.8447 65.9176 92.0373 67.0269 90.1116 67.4977C88.186 67.9683 86.1926 68.2037 84.1318 68.2037H78.0506L76.125 77.7851H69.0809L76.3277 41.6279ZM82.2568 47.3768L79.2162 62.5052C79.4189 62.5389 79.6216 62.5557 79.8243 62.5557H80.5338C83.7771 62.5893 86.4798 62.2699 88.6421 61.5975C90.8041 60.8916 92.2569 58.4374 93.0002 54.235C93.6083 50.705 93.0002 48.6711 91.1759 48.1331C89.3852 47.5953 87.1385 47.3431 84.4358 47.3768C84.0304 47.4103 83.6419 47.4272 83.2703 47.4272C82.9325 47.4272 82.5777 47.4272 82.2061 47.4272L82.2568 47.3768Z" fill="#B7B7BE"/>
</g>
<defs>
<clipPath id="clip0_7007_333">
<rect width="92" height="46" fill="white" transform="translate(9 32)"/>
</clipPath>
</defs>
</svg>

<svg width="110" height="110" viewBox="0 0 110 110" fill="none" xmlns="http://www.w3.org/2000/svg"><g clip-path="url(#clip0_7007_333)" fill="#B7B7BE"><path d="M16.247 41.628h13.581c3.987.034 6.875 1.177 8.666 3.429 1.79 2.253 2.382 5.329 1.773 9.228a17.65 17.65 0 01-1.57 5.245 15.59 15.59 0 01-3.244 4.64c-1.69 1.748-3.497 2.857-5.422 3.328a25.1 25.1 0 01-5.98.706H17.97l-1.926 9.581H9l7.247-36.157zm5.929 5.749l-3.04 15.128c.202.034.405.05.607.05h.71c3.243.034 5.946-.285 8.108-.958 2.162-.705 3.615-3.16 4.358-7.362.608-3.53 0-5.564-1.824-6.102-1.79-.538-4.037-.79-6.74-.756-.405.033-.794.05-1.166.05h-1.064l.05-.05zM48.294 32h6.993l-1.976 9.632h6.283c3.447.067 6.014.773 7.703 2.118 1.723 1.345 2.23 3.9 1.52 7.665l-3.395 16.793h-7.094L61.57 52.17c.338-1.68.236-2.874-.304-3.58s-1.706-1.06-3.497-1.06l-5.625-.05-4.155 20.727h-6.994L48.294 32zm28.034 9.628h13.581c3.986.034 6.875 1.177 8.666 3.429 1.79 2.253 2.381 5.329 1.773 9.228a17.637 17.637 0 01-1.57 5.245 15.587 15.587 0 01-3.244 4.64c-1.69 1.748-3.497 2.857-5.422 3.328a25.1 25.1 0 01-5.98.706H78.05l-1.926 9.581H69.08l7.247-36.157zm5.929 5.749l-3.04 15.128c.202.034.405.05.607.05h.71c3.243.034 5.946-.285 8.108-.958 2.162-.705 3.615-3.16 4.358-7.362.608-3.53 0-5.564-1.824-6.102-1.79-.538-4.038-.79-6.74-.756-.406.033-.794.05-1.166.05h-1.064l.05-.05z"/></g><defs><clipPath id="clip0_7007_333"><path fill="#fff" transform="translate(9 32)" d="M0 0h92v46H0z"/></clipPath></defs></svg>
